X:43
T:Dinky's
C:Traditional
M:C|
R:reel
K:Amix
ed | c2B2 ABcd | egfd edBd | gB (3BBB gBaB | gB (3BBB gfed |
cdBc ABcd | egfd edBd | gB (3BBB efed | cdBc A2 :|
|: e^g | aA (3AAA aAbA | aA (3AAA agef | gB (3BBB gBaB | gB (3BBB gefg |
[1 aA (3AAA aAbA | aA (3AAA agef | gage dfed | c2B2 A2 :|
[2 aA (3AAA gA (3AAA | fA (3AAA e2ef | gage dfed | c2B2 A2 |]

